X: 21304
T: Ken Meadows'
R: waltz
M: 3/4
K: Amajor
[M:9/8]
z "AABBABC" e2d|c3 c2 A BAG|A3- A2 E Ace|a3- a2 c' bag|a3 a2
g a2 b|a2 g e3 c3|def e3 d3|c3 c2d edc|B3- B2
ee2d|c3 c2 A BAG|A3- A2 E Ace|a3 a2 c' bag|a3- a2
g a2 b|a2 g e3 c3|def e3 d3|c3 c2e BAG|A3- A2:|
dc2d|B2G E2G B2c|d3-d2 c dcB|c3 c2B c2d|e3-e2
c'c'2b|a2g e3 c3|def e3 d3|c3 c2d edc|B3-B2:|
ze2d|c3 c2 A BAG|A3- A3 EFG|A3 Bcd efg|a3- a3
c'2 b|a2g e3 c3|def e3 d3|c3 c2 A BAG|A3-A2||

